X:892
T:Vals
T:efter Pelle Fors
R:Vals
O:Vikbolandet, Östergötland
S:efter Pelle Fors
B:Låtar efter Pelle Fors
Z:Björn Ek 2009-01-01
M:3/4
L:1/8
K:G
%
d2-|:d3c Bd|G4e2   |!trill!d3c Bc|A4D2- |
D2 fff2    |D2 fff2|g4 a2        |b4d2  |
d3c Bd     |G4e2   |d3c Bc       |A4D2- |
D2 fff2    |D2 fff2|D2ggg2       |1g4d2:|2g4Bd||
%
|:d2c2c2|E4Ec  |c2B2B2|D4DB  |
B2A2A2  |D2E2F2|G4A2  |B4Bd  |
d2c2c2  |E4Ec  |c2B2B2|D4DB  |
B2A2A2  |D2E2F2|G3GG2 |1G4Bd:|2G4|]
%
(:musicend:)

(:music:)
